X:4128020
T:Denis Murphy's Slide (1)
C:file ID: jol/049den_ms1
L:1/8
M:12/8
Q:180
R:jig
K:G
%P:JOL.032
B/c/|d3 e2d BAB d2B|ABc AGA B2A G2B|
d3 e2d BAB d2B|AGA B2A G3 G2 :|
e|d2e def g2g faf|g2e dBd e2A A2d|
B2d def gfg faf|efe def g3 g2 :|


